**kern	**kern	**dynam
*part1	*part1	*part1
*staff2	*staff1	*
*I"Piano	*	*
*clefF4	*clefG2	*
*k[f#]	*k[f#]	*
=1	=1	=1
8AAL	16r	.
.	8eL 8f# 8cc	.
8FF#	.	.
.	8e 8a 8cc	.
8BB	.	.
.	8d#X 8f# 8b	.
8D#XJ	.	.
.	16BJk 16f# 16a	.
=	=	=
8EL	16r	.
.	8BL 8e 8g	.
8Dn	.	.
.	8B 8f# 8b	.
8C	.	.
.	8e 8g 8cc	.
8BBJ	.	.
.	16gJk 16b 16dd	.
=	=	=
8AAL	16r	.
.	8gL 8cc 8ee	.
8GG	.	.
.	8a 8cc 8ee	.
8FF#	.	.
.	8a 8cc 8dd	.
8CJ	.	.
.	16f#Jk 16a 16dd	.
=	=	=
8BBL	16r	.
.	8dL 8g 8dd	.
8C	.	.
.	8e 8g 8cc	.
8D	.	.
.	8d 8g 8b	.
8DDJ	.	.
.	16cJk 16f# 16a	.
=	=	=
!	!LO:TX:a:i:t=poco rit.	!
8GGL	16r	.
.	8BL 8d 8g	.
8D	.	.
.	8B 8d 8g	.
8G	.	.
.	8B 8d 8g	.
8AJ	.	.
.	16BJk 16d 16g	.
=	=	=
8BL	16r	pp
.	8GL 8d 8g	.
8eJ	.	.
.	8G 8B 8g	.
[4d	.	.
.	8G 8B 8g	.
.	[16GJk [16B [16g	.
=	=	=
2d]	2G] 2B] 2g]	.
==	==	==
*-	*-	*-
!!!system-decoration: {(s1,s2)}
